flaticon/religion/cross-1.svg

<svg xmlns="http://www.w3.org/2000/svg" width="32" height="32" viewBox="0 0 24 24">
    <path d="M 14.601562 5.199219 L 14.601562 0 L 9.398438 0 L 9.398438 5.199219 L 3.398438 5.199219 L 3.398438 10.398438 L 9.398438 10.398438 L 9.398438 24 L 14.601562 24 L 14.601562 10.398438 L 20.601562 10.398438 L 20.601562 5.199219 Z M 19.800781 9.601562 L 13.800781 9.601562 L 13.800781 23.199219 L 10.199219 23.199219 L 10.199219 9.601562 L 4.199219 9.601562 L 4.199219 6 L 10.199219 6 L 10.199219 0.800781 L 13.800781 0.800781 L 13.800781 6 L 19.800781 6 Z M 19.800781 9.601562"/>
</svg>

<svg xmlns="http://www.w3.org/2000/svg" width="32" height="32" viewBox="0 0 24 24">
    <path d="M14.602 5.2V0H9.398v5.2h-6v5.198h6V24h5.204V10.398h6V5.2zM19.8 9.601h-6v13.597h-3.602V9.602h-6V6h6V.8h3.602V6h6zm0 0"/>
</svg>
